X: 9
T:Bourree Lozrienne
M:3/8
L:1/16
S:L'accordon en Auvergne
R:bourree
P:4
K:C
"Intro" [G2B2]|[G4c4]  [G2B2]|[G4c4]  [G2B2]|[G4c4]   |: G2|| c2dedc|Bdc
4   |dedef2|ded2G2|c2dedc|Bd c4  |dedef2|d4   G2||c2Bcde|f2d2e2|c2dedc|B
2 G4   |c2Bcde|f2d2g2|egfedB|c4   g2 || agegfe|def2d2|g2egfe|d4  gg|ageg
fe|def2d2|g2egfe|d4   G2||c2Bcde|f2d2e2|c2dedc|B2 G4   |c2Bcde|f2d2g2 |e
gfedB|c4   :| "Coda" ![G2B2] [G4c4]    ||
